src/assets/Images/who-we-are/rocket.svg

<?xml version="1.0" encoding="UTF-8"?>
<svg width="21px" height="18px" viewBox="0 0 21 18" version="1.1" xmlns="http://www.w3.org/2000/svg" xmlns:xlink="http://www.w3.org/1999/xlink">
    <!-- Generator: Sketch 60 (88103) - https://sketch.com -->
    <title>rocket</title>
    <desc>Created with Sketch.</desc>
    <g id="Écrans" stroke="none" stroke-width="1" fill="none" fill-rule="evenodd">
        <g id="4.0.0.1---Qui-sommes-nous-?-3" transform="translate(-1288.000000, -830.000000)" fill="#CACCD8" fill-rule="nonzero">
            <g id="rocket" transform="translate(1295.414214, 839.000000) rotate(-315.000000) translate(-1295.414214, -839.000000) translate(1285.414214, 829.000000)">
                <path d="M19.1854779,1.14807762 C19.1446488,0.984808183 19.0184497,0.858645434 18.8588451,0.821538743 C17.4001327,0.465314512 16.9844182,0.439339828 15.7038692,0.439339828 C13.1576181,0.439339828 10.9491349,2.10543024 9.25287143,4.00158214 L4.52040761,4.00158214 C4.09726966,4.00158214 3.70753735,4.22422229 3.49596838,4.59157853 L0.723301335,9.34123495 C0.263046029,10.1316075 0.834653425,11.1260668 1.74774056,11.1260668 L4.81734651,11.1260668 C4.49813719,11.8348046 4.28656822,12.3691409 4.12696355,12.7810252 C4.06386404,12.9442946 4.1009814,13.1335387 4.22718043,13.2559908 L6.74002593,15.7681138 C6.86622497,15.8942765 7.05181179,15.9313832 7.21512818,15.8683019 C7.63084265,15.7087431 8.16162095,15.4972349 8.87056259,15.1781174 L8.87056259,18.2505514 C8.87056259,19.1670867 9.86530793,19.7385297 10.6559078,19.2746961 L15.4069303,16.5028263 C15.7706804,16.2913181 15.9970964,15.8979872 15.9970964,15.4786816 L15.9970964,10.7475785 C17.8937936,9.05180276 19.5603632,6.84395466 19.5603632,4.29843567 C19.564075,3.01825484 19.5380928,2.59894923 19.1854779,1.14807762 Z M1.74774056,9.93865267 L4.52040761,5.18899625 L8.27297304,5.18899625 C7.06665873,6.76974128 6.09789555,8.46551704 5.37410696,9.93865267 L1.74774056,9.93865267 Z M10.06203,18.2505514 L10.06203,14.6252277 C11.5355893,13.9016472 13.2318528,12.9368733 14.8130525,11.7271952 L14.8130525,15.4786816 L10.06203,18.2505514 Z M7.2373986,14.588121 L5.41493606,12.7661825 C7.15202867,8.45067437 11.0938927,1.62675393 15.7075809,1.62675393 C16.6243798,1.62675393 17.0920586,1.62675393 18.1387682,1.86794742 C18.3763193,2.9143561 18.3763193,3.37818974 18.3763193,4.29843567 C18.3763193,8.91079733 11.5430128,12.8515279 7.2373986,14.588121 Z M14.2191746,3.70472862 C13.0722481,3.70472862 12.1406023,4.63610656 12.1406023,5.7827033 C12.1406023,6.92930005 13.0722481,7.86067798 14.2191746,7.86067798 C15.3661012,7.86067798 16.297747,6.92930005 16.297747,5.7827033 C16.297747,4.63610656 15.3661012,3.70472862 14.2191746,3.70472862 Z M14.2191746,6.67326388 C13.7292255,6.67326388 13.3283579,6.27251162 13.3283579,5.7827033 C13.3283579,5.29289498 13.7292255,4.89214272 14.2191746,4.89214272 C14.7091238,4.89214272 15.1099914,5.29289498 15.1099914,5.7827033 C15.1099914,6.27251162 14.7091238,6.67326388 14.2191746,6.67326388 Z" id="Shape"></path>
            </g>
        </g>
    </g>
</svg>

<svg xmlns="http://www.w3.org/2000/svg" width="21" height="18" viewBox="0 0 21 18">
    <g fill="none" fill-rule="evenodd">
        <g fill="#CACCD8" fill-rule="nonzero">
            <g>
                <path d="M19.185 1.148c-.04-.163-.167-.29-.326-.326C17.4.465 16.984.439 15.704.439c-2.546 0-4.755 1.666-6.451 3.563H4.52c-.423 0-.812.222-1.024.59L.723 9.342c-.46.79.112 1.784 1.025 1.784h3.07c-.32.709-.531 1.243-.691 1.655-.063.163-.026.353.1.475l2.513 2.512c.126.126.312.163.475.1.416-.16.947-.37 1.656-.69v3.073c0 .916.994 1.488 1.785 1.024l4.75-2.772c.365-.212.591-.605.591-1.024v-4.731c1.897-1.696 3.563-3.904 3.563-6.45.004-1.28-.022-1.7-.375-3.15zM1.748 9.938L4.52 5.19h3.753c-1.206 1.58-2.175 3.277-2.899 4.75H1.748zm8.314 8.313v-3.626c1.474-.723 3.17-1.688 4.751-2.898v3.752l-4.751 2.772zm-2.825-3.663l-1.822-1.822c1.737-4.315 5.679-11.14 10.293-11.14.916 0 1.384 0 2.43.242.238 1.046.238 1.51.238 2.43 0 4.613-6.833 8.554-11.139 10.29zM14.22 3.705c-1.147 0-2.078.931-2.078 2.078 0 1.146.931 2.078 2.078 2.078 1.147 0 2.079-.932 2.079-2.078 0-1.147-.932-2.078-2.079-2.078zm0 2.968c-.49 0-.89-.4-.89-.89s.4-.89.89-.89.891.4.891.89-.4.89-.89.89z" transform="translate(-1288 -830) rotate(45 -347.984 1976.132)"/>
            </g>
        </g>
    </g>
</svg>
